X:15077
T:Scottis
R:Schottische
O:Norway
M:4/4
C:e. Georg Brobacken
K:AMix
~(E2 E)>F (E2 E)>D|E>B c>B A4|1\
 (c2 c)>B (G2 G)>F|G>B e>c B<A A>F :|2\
 (c2 c)>B G>B e>c|B<A A>B A4 :|
 |:\
~(a2 a)>b (g2 g)>f|e>f e>c B<A A2 |1\
 (c2 c)>B (G2 G)>F|G>B e>c B<A A2 :|2\
 (c2 c)>B G>B e>c|B<A A>B A4 :|
